svgs/regular/files-medical.svg

<svg xmlns="http://www.w3.org/2000/svg" viewBox="0 0 448 512"><!--! Font Awesome Pro 6.6.0 by @fontawesome - https://fontawesome.com License - https://fontawesome.com/license (Commercial License) Copyright 2024 Fonticons, Inc. --><path d="M384 368l-224 0c-8.8 0-16-7.2-16-16l0-288c0-8.8 7.2-16 16-16l160 0 0 48c0 17.7 14.3 32 32 32l48 0 0 224c0 8.8-7.2 16-16 16zM160 416l224 0c35.3 0 64-28.7 64-64l0-229.5c0-17-6.7-33.3-18.7-45.3L370.7 18.7C358.7 6.7 342.5 0 325.5 0L160 0C124.7 0 96 28.7 96 64l0 288c0 35.3 28.7 64 64 64zM48 120c0-13.3-10.7-24-24-24S0 106.7 0 120L0 376c0 75.1 60.9 136 136 136l192 0c13.3 0 24-10.7 24-24s-10.7-24-24-24l-192 0c-48.6 0-88-39.4-88-88l0-256zm197.3 72l0 37.3-37.3 0c-8.8 0-16 7.2-16 16l0 21.3c0 8.8 7.2 16 16 16l37.3 0 0 37.3c0 8.8 7.2 16 16 16l21.3 0c8.8 0 16-7.2 16-16l0-37.3 37.3 0c8.8 0 16-7.2 16-16l0-21.3c0-8.8-7.2-16-16-16l-37.3 0 0-37.3c0-8.8-7.2-16-16-16l-21.3 0c-8.8 0-16 7.2-16 16z"/></svg>

<svg xmlns="http://www.w3.org/2000/svg" viewBox="0 0 448 512"><!--! Font Awesome Pro 6.4.2 by @fontawesome - https://fontawesome.com License - https://fontawesome.com/license (Commercial License) Copyright 2023 Fonticons, Inc. --><path d="M384 368H160c-8.8 0-16-7.2-16-16V64c0-8.8 7.2-16 16-16H320V96c0 17.7 14.3 32 32 32h48V352c0 8.8-7.2 16-16 16zM160 416H384c35.3 0 64-28.7 64-64V122.5c0-17-6.7-33.3-18.7-45.3L370.7 18.7C358.7 6.7 342.5 0 325.5 0H160C124.7 0 96 28.7 96 64V352c0 35.3 28.7 64 64 64zM48 120c0-13.3-10.7-24-24-24S0 106.7 0 120V376c0 75.1 60.9 136 136 136H328c13.3 0 24-10.7 24-24s-10.7-24-24-24H136c-48.6 0-88-39.4-88-88V120zm197.3 72v37.3H208c-8.8 0-16 7.2-16 16v21.3c0 8.8 7.2 16 16 16h37.3V320c0 8.8 7.2 16 16 16h21.3c8.8 0 16-7.2 16-16V282.7H336c8.8 0 16-7.2 16-16V245.3c0-8.8-7.2-16-16-16H298.7V192c0-8.8-7.2-16-16-16H261.3c-8.8 0-16 7.2-16 16z"/></svg>
